img/increase-1024..svg

<svg width="60" height="60" viewBox="0 0 60 60" fill="none" xmlns="http://www.w3.org/2000/svg">
<rect width="18.867" height="4.71676" transform="matrix(-0.712022 0.702157 0.712022 0.702157 13.4338 43.4404)" fill="white"/>
<path fill-rule="evenodd" clip-rule="evenodd" d="M32.7923 49.9525C20.7712 49.9525 11.0262 40.0127 11.0262 27.7514C11.0262 15.4901 20.7712 5.55028 32.7923 5.55028C44.8134 5.55028 54.5585 15.4901 54.5585 27.7514C54.5585 40.0127 44.8134 49.9525 32.7923 49.9525ZM32.7923 55.5028C17.7659 55.5028 5.58462 43.078 5.58462 27.7514C5.58462 12.4247 17.7659 0 32.7923 0C47.8187 0 60 12.4247 60 27.7514C60 43.078 47.8187 55.5028 32.7923 55.5028Z" fill="white"/>
<path d="M31.1113 18.2281L31.1113 37.2154L35.5524 37.2154L35.5524 18.228L31.1113 18.2281Z" fill="white"/>
<path d="M42.3952 25.8228L23.8767 25.8228L23.8767 30.3763L42.3953 30.3763L42.3952 25.8228Z" fill="white"/>
</svg>

<svg width="60" height="60" fill="none" xmlns="http://www.w3.org/2000/svg"><path fill="#fff" d="M13.434 43.44 0 56.688 3.36 60l13.433-13.248z"/><path fill-rule="evenodd" clip-rule="evenodd" d="M32.792 49.953c-12.02 0-21.766-9.94-21.766-22.202 0-12.26 9.745-22.2 21.766-22.2 12.021 0 21.767 9.94 21.767 22.2 0 12.262-9.746 22.201-21.767 22.201Zm0 5.55c-15.026 0-27.207-12.425-27.207-27.752C5.585 12.425 17.765 0 32.792 0 47.82 0 60 12.425 60 27.751c0 15.327-12.181 27.752-27.208 27.752Z" fill="#fff"/><path d="M31.111 18.228v18.987h4.441V18.228h-4.44Z" fill="#fff"/><path d="M42.395 25.823H23.877v4.553h18.518v-4.553Z" fill="#fff"/></svg>
